X: 10063
M: 2/4
L: 1/8
K: G
|:\
d2  e2  | dc B>c | d2  e2  | d>c B>c |\
d2  d2  | e2 fg  | f2  e2  | d4     ::\
gf  ed  | ed cB  | c2  A2  | B4      |\
gf  ed  | ed cB  | c2  A2  | G4     :|


